X: 3888
T: Black Valley, The
R: reel
M: 4/4
K: Amajor
|:ecBc AF~F2|EFAB cFAc|deec ef~f2|fecA B2fe|
ceBc AF~F2|EFAB cFAc|defa fecf|1 ecBc A3f:|2 ecBc A2AF||
E2EF FA ~A,2|CEEC EF G/A/B|ceec ef~f2|fecA B2AF|
E2EF FA~A2|cecA BAFA|feec efag|f/e/d cB A2AF|
E2EF FA~A2|ceec BAFA|ceec ef~f2|fecA B/=c/^c AF|
E2EF FA~A2|cecA EF A/B/c|defa fecf|ecBc A4||

